X:5130
T:The Bull's Mouth
M:6/8
R:Jig
L:1/8
Q:180
C:Aidan Crossey
K:G
|:gdd edd|Bdd Add|gdd edd|fge dBG|
gdd edd|Bdd Add|gdd edB|GBd g3:||
|:bgg agg|egg dgg|bgg age|def g3|
bgg agg|egg dBG|cea Bdg|fef g3:||
